; generated by Slic3r 1.3.0 on 2024-11-09 at 19:41:23

; external perimeters extrusion width = 0.55mm (7.28mm^3/s)
; perimeters extrusion width = 0.70mm (11.44mm^3/s)
; infill extrusion width = 0.63mm (13.45mm^3/s)
; solid infill extrusion width = 0.70mm (3.81mm^3/s)
; top infill extrusion width = 0.70mm (2.86mm^3/s)

M107
M104 S200 ; set temperature
G28 ; home all axes
G1 Z5 F5000 ; lift nozzle

; Filament gcode

M109 S200 ; set temperature and wait for it to be reached
G21 ; set units to millimeters
G90 ; use absolute coordinates
M82 ; use absolute distances for extrusion
G92 E0
G1 Z0.350 F7800.000
G1 E-2.00000 F2400.00000
G92 E0
G1 X89.979 Y90.777 F7800.000
G1 E2.00000 F2400.00000
G1 F1800
G1 X91.729 Y89.312 E2.06340
G1 X95.000 Y88.439 E2.15744
G1 X105.000 Y88.439 E2.43521
G1 X107.247 Y88.836 E2.49861
G1 X109.223 Y89.979 E2.56201
G1 X110.688 Y91.729 E2.62540
G1 X111.561 Y95.000 E2.71944
G1 X111.561 Y105.000 E2.99722
G1 X111.164 Y107.247 E3.06062
G1 X110.021 Y109.223 E3.12401
G1 X108.271 Y110.688 E3.18741
G1 X105.000 Y111.561 E3.28145
G1 X95.000 Y111.561 E3.55923
G1 X92.753 Y111.164 E3.62263
G1 X90.777 Y110.021 E3.68602
G1 X89.312 Y108.271 E3.74942
G1 X88.439 Y105.000 E3.84346
G1 X88.439 Y95.000 E4.12124
G1 X88.836 Y92.753 E4.18463
G1 X89.941 Y90.842 E4.24595
G1 E2.24595 F2400.00000
G92 E0
G1 X103.646 Y103.646 F7800.000
G1 E2.00000 F2400.00000
G1 F1800
G1 X96.354 Y103.646 E2.20256
G1 X96.354 Y96.354 E2.40512
G1 X103.646 Y96.354 E2.60768
G1 X103.646 Y103.571 E2.80815
G1 X104.207 Y104.207 F7800.000
G1 F1800
G1 X95.793 Y104.207 E3.04188
G1 X95.793 Y95.793 E3.27560
G1 X104.207 Y95.793 E3.50933
G1 X104.207 Y104.132 E3.74097
G1 X104.725 Y104.725 F7800.000
G1 F1800
G1 X95.275 Y104.725 E3.96318
G1 X95.275 Y95.275 E4.18539
G1 X104.725 Y95.275 E4.40759
G1 X104.725 Y104.650 E4.62804
G1 X104.242 Y104.596 F7800.000
G1 E2.62804 F2400.00000
G92 E0
G1 X102.867 Y103.303 F7800.000
G1 E2.00000 F2400.00000
G1 F1800
G1 X103.303 Y102.867 E2.01778
G1 X103.303 Y102.044 E2.04148
G1 X102.044 Y103.303 E2.09277
G1 X101.221 Y103.303 E2.11646
G1 X103.303 Y101.221 E2.20126
G1 X103.303 Y100.399 E2.22496
G1 X100.399 Y103.303 E2.34327
G1 X99.576 Y103.303 E2.36697
G1 X103.303 Y99.576 E2.51879
G1 X103.303 Y98.753 E2.54249
G1 X98.753 Y103.303 E2.72782
G1 X97.931 Y103.303 E2.75152
G1 X103.303 Y97.931 E2.97036
G1 X103.303 Y97.108 E2.99406
G1 X97.108 Y103.303 E3.24641
G1 X96.697 Y103.303 E3.25826
G1 X96.697 Y102.892 E3.27011
G1 X102.892 Y96.697 E3.52247
G1 X102.069 Y96.697 E3.54616
G1 X96.697 Y102.069 E3.76501
G1 X96.697 Y101.247 E3.78870
G1 X101.247 Y96.697 E3.97404
G1 X100.424 Y96.697 E3.99773
G1 X96.697 Y100.424 E4.14956
G1 X96.697 Y99.601 E4.17325
G1 X99.601 Y96.697 E4.29157
G1 X98.779 Y96.697 E4.31526
G1 X96.697 Y98.779 E4.40007
G1 X96.697 Y97.956 E4.42376
G1 X97.956 Y96.697 E4.47505
G1 X97.133 Y96.697 E4.49875
G1 X96.697 Y97.133 E4.51652
G1 Z0.650 F7800.000
G1 E2.51652 F2400.00000
G92 E0
G1 X103.529 Y103.529 F7800.000
G1 E2.00000 F2400.00000
G1 F900
G1 X96.471 Y103.529 E2.19039
G1 X96.471 Y96.471 E2.38077
G1 X103.529 Y96.471 E2.57116
G1 X103.529 Y103.454 E2.75953
G1 X104.164 Y104.164 F7800.000
G1 F900
G1 X95.836 Y104.164 E2.98421
G1 X95.836 Y95.836 E3.20889
G1 X104.164 Y95.836 E3.43357
G1 X104.164 Y104.089 E3.65623
G1 X104.725 Y104.725 F7800.000
G1 F900
G1 X95.275 Y104.725 E3.85100
G1 X95.275 Y95.275 E4.04576
G1 X104.725 Y95.275 E4.24053
G1 X104.725 Y104.650 E4.43375
G1 X104.242 Y104.596 F7800.000
G1 E2.43375 F2400.00000
G92 E0
G1 X103.140 Y97.354 F7800.000
G1 E2.00000 F2400.00000
G1 F1200
G1 X102.646 Y96.860 E2.02024
G1 X101.681 Y96.860 E2.04815
G1 X103.140 Y98.319 E2.10786
G1 X103.140 Y99.283 E2.13577
G1 X100.717 Y96.860 E2.23495
G1 X99.753 Y96.860 E2.26286
G1 X103.140 Y100.247 E2.40151
G1 X103.140 Y101.212 E2.42942
G1 X98.788 Y96.860 E2.60755
G1 X97.824 Y96.860 E2.63546
G1 X103.140 Y102.176 E2.85305
G1 X103.140 Y103.140 E2.88096
G1 X96.860 Y96.860 E3.13802
G1 X96.860 Y97.824 E3.16593
G1 X102.176 Y103.140 E3.38352
G1 X101.212 Y103.140 E3.41143
G1 X96.860 Y98.788 E3.58956
G1 X96.860 Y99.753 E3.61746
G1 X100.247 Y103.140 E3.75612
G1 X99.283 Y103.140 E3.78403
G1 X96.860 Y100.717 E3.88321
G1 X96.860 Y101.681 E3.91112
G1 X98.319 Y103.140 E3.97083
G1 X97.354 Y103.140 E3.99874
G1 X96.860 Y102.646 E4.01898
G1 Z0.950 F7800.000
G1 E2.01898 F2400.00000
G92 E0
G1 X103.529 Y103.529 F7800.000
G1 E2.00000 F2400.00000
G1 F900
G1 X96.471 Y103.529 E2.19039
G1 X96.471 Y96.471 E2.38077
G1 X103.529 Y96.471 E2.57116
G1 X103.529 Y103.454 E2.75953
G1 X104.164 Y104.164 F7800.000
G1 F900
G1 X95.836 Y104.164 E2.98421
G1 X95.836 Y95.836 E3.20889
G1 X104.164 Y95.836 E3.43357
G1 X104.164 Y104.089 E3.65623
G1 X104.725 Y104.725 F7800.000
G1 F900
G1 X95.275 Y104.725 E3.85100
G1 X95.275 Y95.275 E4.04576
G1 X104.725 Y95.275 E4.24053
G1 X104.725 Y104.650 E4.43375
G1 X104.242 Y104.596 F7800.000
G1 E2.43375 F2400.00000
G92 E0
G1 X102.646 Y103.140 F7800.000
G1 E2.00000 F2400.00000
G1 F1200
G1 X103.140 Y102.646 E2.02024
G1 X103.140 Y101.681 E2.04815
G1 X101.681 Y103.140 E2.10786
G1 X100.717 Y103.140 E2.13577
G1 X103.140 Y100.717 E2.23495
G1 X103.140 Y99.753 E2.26286
G1 X99.753 Y103.140 E2.40151
G1 X98.788 Y103.140 E2.42942
G1 X103.140 Y98.788 E2.60755
G1 X103.140 Y97.824 E2.63546
G1 X97.824 Y103.140 E2.85305
G1 X96.860 Y103.140 E2.88096
G1 X103.140 Y96.860 E3.13802
G1 X102.176 Y96.860 E3.16593
G1 X96.860 Y102.176 E3.38352
G1 X96.860 Y101.212 E3.41143
G1 X101.212 Y96.860 E3.58955
G1 X100.247 Y96.860 E3.61746
G1 X96.860 Y100.247 E3.75612
G1 X96.860 Y99.283 E3.78403
G1 X99.283 Y96.860 E3.88321
G1 X98.319 Y96.860 E3.91112
G1 X96.860 Y98.319 E3.97083
G1 X96.860 Y97.354 E3.99874
G1 X97.354 Y96.860 E4.01898
M106 S237.15
G1 Z1.250 F7800.000
G1 E2.01898 F2400.00000
G92 E0
G1 X103.529 Y103.529 F7800.000
G1 E2.00000 F2400.00000
G1 F900
G1 X96.471 Y103.529 E2.19039
G1 X96.471 Y96.471 E2.38077
G1 X103.529 Y96.471 E2.57116
G1 X103.529 Y103.454 E2.75953
G1 X104.164 Y104.164 F7800.000
G1 F900
G1 X95.836 Y104.164 E2.98421
G1 X95.836 Y95.836 E3.20889
G1 X104.164 Y95.836 E3.43357
G1 X104.164 Y104.089 E3.65623
G1 X104.725 Y104.725 F7800.000
G1 F900
G1 X95.275 Y104.725 E3.85100
G1 X95.275 Y95.275 E4.04576
G1 X104.725 Y95.275 E4.24053
G1 X104.725 Y104.650 E4.43375
G1 X104.242 Y104.596 F7800.000
G1 E2.43375 F2400.00000
G92 E0
G1 X103.140 Y97.354 F7800.000
G1 E2.00000 F2400.00000
G1 F1200
G1 X102.646 Y96.860 E2.02024
G1 X101.681 Y96.860 E2.04815
G1 X103.140 Y98.319 E2.10786
G1 X103.140 Y99.283 E2.13577
G1 X100.717 Y96.860 E2.23495
G1 X99.753 Y96.860 E2.26286
G1 X103.140 Y100.247 E2.40151
G1 X103.140 Y101.212 E2.42942
G1 X98.788 Y96.860 E2.60754
G1 X97.824 Y96.860 E2.63545
G1 X103.140 Y102.176 E2.85304
G1 X103.140 Y103.140 E2.88095
G1 X96.860 Y96.860 E3.13801
G1 X96.860 Y97.824 E3.16592
G1 X102.176 Y103.140 E3.38351
G1 X101.212 Y103.140 E3.41142
G1 X96.860 Y98.788 E3.58955
G1 X96.860 Y99.753 E3.61746
G1 X100.247 Y103.140 E3.75611
G1 X99.283 Y103.140 E3.78402
G1 X96.860 Y100.717 E3.88320
G1 X96.860 Y101.681 E3.91111
G1 X98.319 Y103.140 E3.97082
G1 X97.354 Y103.140 E3.99873
G1 X96.860 Y102.646 E4.01897
G1 Z1.550 F7800.000
G1 E2.01897 F2400.00000
G92 E0
G1 X103.529 Y103.529 F7800.000
G1 E2.00000 F2400.00000
G1 F900
G1 X96.471 Y103.529 E2.19039
G1 X96.471 Y96.471 E2.38077
G1 X103.529 Y96.471 E2.57116
G1 X103.529 Y103.454 E2.75953
G1 X104.164 Y104.164 F7800.000
G1 F900
G1 X95.836 Y104.164 E2.98421
G1 X95.836 Y95.836 E3.20889
G1 X104.164 Y95.836 E3.43357
G1 X104.164 Y104.089 E3.65623
G1 X104.725 Y104.725 F7800.000
G1 F900
G1 X95.275 Y104.725 E3.85100
G1 X95.275 Y95.275 E4.04576
G1 X104.725 Y95.275 E4.24053
G1 X104.725 Y104.650 E4.43375
G1 X104.242 Y104.596 F7800.000
G1 E2.43375 F2400.00000
G92 E0
G1 X102.646 Y103.140 F7800.000
G1 E2.00000 F2400.00000
G1 F1200
G1 X103.140 Y102.646 E2.02024
G1 X103.140 Y101.681 E2.04815
G1 X101.681 Y103.140 E2.10786
G1 X100.717 Y103.140 E2.13577
G1 X103.140 Y100.717 E2.23495
G1 X103.140 Y99.753 E2.26286
G1 X99.753 Y103.140 E2.40151
G1 X98.788 Y103.140 E2.42942
G1 X103.140 Y98.788 E2.60754
G1 X103.140 Y97.824 E2.63545
G1 X97.824 Y103.140 E2.85304
G1 X96.860 Y103.140 E2.88095
G1 X103.140 Y96.860 E3.13801
G1 X102.176 Y96.860 E3.16592
G1 X96.860 Y102.176 E3.38351
G1 X96.860 Y101.212 E3.41142
G1 X101.212 Y96.860 E3.58955
G1 X100.247 Y96.860 E3.61745
G1 X96.860 Y100.247 E3.75611
G1 X96.860 Y99.283 E3.78402
G1 X99.283 Y96.860 E3.88320
G1 X98.319 Y96.860 E3.91111
G1 X96.860 Y98.319 E3.97082
G1 X96.860 Y97.354 E3.99873
G1 X97.354 Y96.860 E4.01897
G1 Z1.850 F7800.000
G1 E2.01897 F2400.00000
G92 E0
G1 X103.529 Y103.529 F7800.000
G1 E2.00000 F2400.00000
G1 F900
G1 X96.471 Y103.529 E2.19039
G1 X96.471 Y96.471 E2.38077
G1 X103.529 Y96.471 E2.57116
G1 X103.529 Y103.454 E2.75953
G1 X104.164 Y104.164 F7800.000
G1 F900
G1 X95.836 Y104.164 E2.98421
G1 X95.836 Y95.836 E3.20889
G1 X104.164 Y95.836 E3.43357
G1 X104.164 Y104.089 E3.65623
G1 X104.725 Y104.725 F7800.000
G1 F900
G1 X95.275 Y104.725 E3.85100
G1 X95.275 Y95.275 E4.04576
G1 X104.725 Y95.275 E4.24053
G1 X104.725 Y104.650 E4.43375
G1 X104.242 Y104.596 F7800.000
G1 E2.43375 F2400.00000
G92 E0
G1 X103.140 Y97.354 F7800.000
G1 E2.00000 F2400.00000
G1 F1200
G1 X102.646 Y96.860 E2.02024
G1 X101.681 Y96.860 E2.04815
G1 X103.140 Y98.319 E2.10786
G1 X103.140 Y99.283 E2.13577
G1 X100.717 Y96.860 E2.23495
G1 X99.753 Y96.860 E2.26286
G1 X103.140 Y100.247 E2.40151
G1 X103.140 Y101.212 E2.42942
G1 X98.788 Y96.860 E2.60754
G1 X97.824 Y96.860 E2.63545
G1 X103.140 Y102.176 E2.85304
G1 X103.140 Y103.140 E2.88095
G1 X96.860 Y96.860 E3.13801
G1 X96.860 Y97.824 E3.16592
G1 X102.176 Y103.140 E3.38351
G1 X101.212 Y103.140 E3.41142
G1 X96.860 Y98.788 E3.58955
G1 X96.860 Y99.753 E3.61746
G1 X100.247 Y103.140 E3.75611
G1 X99.283 Y103.140 E3.78402
G1 X96.860 Y100.717 E3.88320
G1 X96.860 Y101.681 E3.91111
G1 X98.319 Y103.140 E3.97082
G1 X97.354 Y103.140 E3.99873
G1 X96.860 Y102.646 E4.01897
G1 Z2.150 F7800.000
G1 E2.01897 F2400.00000
G92 E0
G1 X103.529 Y103.529 F7800.000
G1 E2.00000 F2400.00000
G1 F900
G1 X96.471 Y103.529 E2.19039
G1 X96.471 Y96.471 E2.38077
G1 X103.529 Y96.471 E2.57116
G1 X103.529 Y103.454 E2.75953
G1 X104.164 Y104.164 F7800.000
G1 F900
G1 X95.836 Y104.164 E2.98421
G1 X95.836 Y95.836 E3.20889
G1 X104.164 Y95.836 E3.43357
G1 X104.164 Y104.089 E3.65623
G1 X104.725 Y104.725 F7800.000
G1 F900
G1 X95.275 Y104.725 E3.85100
G1 X95.275 Y95.275 E4.04576
G1 X104.725 Y95.275 E4.24053
G1 X104.725 Y104.650 E4.43375
G1 X104.242 Y104.596 F7800.000
G1 E2.43375 F2400.00000
G92 E0
G1 X102.646 Y103.140 F7800.000
G1 E2.00000 F2400.00000
G1 F1200
G1 X103.140 Y102.646 E2.02024
G1 X103.140 Y101.681 E2.04815
G1 X101.681 Y103.140 E2.10786
G1 X100.717 Y103.140 E2.13577
G1 X103.140 Y100.717 E2.23495
G1 X103.140 Y99.753 E2.26286
G1 X99.753 Y103.140 E2.40151
G1 X98.788 Y103.140 E2.42942
G1 X103.140 Y98.788 E2.60754
G1 X103.140 Y97.824 E2.63545
G1 X97.824 Y103.140 E2.85304
G1 X96.860 Y103.140 E2.88095
G1 X103.140 Y96.860 E3.13801
G1 X102.176 Y96.860 E3.16592
G1 X96.860 Y102.176 E3.38351
G1 X96.860 Y101.212 E3.41142
G1 X101.212 Y96.860 E3.58955
G1 X100.247 Y96.860 E3.61745
G1 X96.860 Y100.247 E3.75611
G1 X96.860 Y99.283 E3.78402
G1 X99.283 Y96.860 E3.88320
G1 X98.319 Y96.860 E3.91111
G1 X96.860 Y98.319 E3.97082
G1 X96.860 Y97.354 E3.99873
G1 X97.354 Y96.860 E4.01897
G1 Z2.450 F7800.000
G1 E2.01897 F2400.00000
G92 E0
G1 X103.529 Y103.529 F7800.000
G1 E2.00000 F2400.00000
G1 F900
G1 X96.471 Y103.529 E2.19039
G1 X96.471 Y96.471 E2.38077
G1 X103.529 Y96.471 E2.57116
G1 X103.529 Y103.454 E2.75953
G1 X104.164 Y104.164 F7800.000
G1 F900
G1 X95.836 Y104.164 E2.98421
G1 X95.836 Y95.836 E3.20889
G1 X104.164 Y95.836 E3.43357
G1 X104.164 Y104.089 E3.65623
G1 X104.725 Y104.725 F7800.000
G1 F900
G1 X95.275 Y104.725 E3.85100
G1 X95.275 Y95.275 E4.04576
G1 X104.725 Y95.275 E4.24053
G1 X104.725 Y104.650 E4.43375
G1 X104.242 Y104.596 F7800.000
G1 E2.43375 F2400.00000
G92 E0
G1 X103.140 Y97.354 F7800.000
G1 E2.00000 F2400.00000
G1 F1200
G1 X102.646 Y96.860 E2.02024
G1 X101.681 Y96.860 E2.04815
G1 X103.140 Y98.319 E2.10786
G1 X103.140 Y99.283 E2.13577
G1 X100.717 Y96.860 E2.23495
G1 X99.753 Y96.860 E2.26286
G1 X103.140 Y100.247 E2.40151
G1 X103.140 Y101.212 E2.42942
G1 X98.788 Y96.860 E2.60754
G1 X97.824 Y96.860 E2.63545
G1 X103.140 Y102.176 E2.85304
G1 X103.140 Y103.140 E2.88095
G1 X96.860 Y96.860 E3.13801
G1 X96.860 Y97.824 E3.16592
G1 X102.176 Y103.140 E3.38351
G1 X101.212 Y103.140 E3.41142
G1 X96.860 Y98.788 E3.58955
G1 X96.860 Y99.753 E3.61746
G1 X100.247 Y103.140 E3.75611
G1 X99.283 Y103.140 E3.78402
G1 X96.860 Y100.717 E3.88320
G1 X96.860 Y101.681 E3.91111
G1 X98.319 Y103.140 E3.97082
G1 X97.354 Y103.140 E3.99873
G1 X96.860 Y102.646 E4.01897
G1 Z2.750 F7800.000
G1 E2.01897 F2400.00000
G92 E0
G1 X103.529 Y103.529 F7800.000
G1 E2.00000 F2400.00000
G1 F900
G1 X96.471 Y103.529 E2.19039
G1 X96.471 Y96.471 E2.38077
G1 X103.529 Y96.471 E2.57116
G1 X103.529 Y103.454 E2.75953
G1 X104.164 Y104.164 F7800.000
G1 F900
G1 X95.836 Y104.164 E2.98421
G1 X95.836 Y95.836 E3.20889
G1 X104.164 Y95.836 E3.43357
G1 X104.164 Y104.089 E3.65623
G1 X104.725 Y104.725 F7800.000
G1 F900
G1 X95.275 Y104.725 E3.85100
G1 X95.275 Y95.275 E4.04576
G1 X104.725 Y95.275 E4.24053
G1 X104.725 Y104.650 E4.43375
G1 X104.242 Y104.596 F7800.000
G1 E2.43375 F2400.00000
G92 E0
G1 X102.646 Y103.140 F7800.000
G1 E2.00000 F2400.00000
G1 F1200
G1 X103.140 Y102.646 E2.02024
G1 X103.140 Y101.681 E2.04815
G1 X101.681 Y103.140 E2.10786
G1 X100.717 Y103.140 E2.13577
G1 X103.140 Y100.717 E2.23495
G1 X103.140 Y99.753 E2.26286
G1 X99.753 Y103.140 E2.40151
G1 X98.788 Y103.140 E2.42942
G1 X103.140 Y98.788 E2.60754
G1 X103.140 Y97.824 E2.63545
G1 X97.824 Y103.140 E2.85304
G1 X96.860 Y103.140 E2.88095
G1 X103.140 Y96.860 E3.13801
G1 X102.176 Y96.860 E3.16592
G1 X96.860 Y102.176 E3.38351
G1 X96.860 Y101.212 E3.41142
G1 X101.212 Y96.860 E3.58955
G1 X100.247 Y96.860 E3.61745
G1 X96.860 Y100.247 E3.75611
G1 X96.860 Y99.283 E3.78402
G1 X99.283 Y96.860 E3.88320
G1 X98.319 Y96.860 E3.91111
G1 X96.860 Y98.319 E3.97082
G1 X96.860 Y97.354 E3.99873
G1 X97.354 Y96.860 E4.01897
G1 Z3.050 F7800.000
G1 E2.01897 F2400.00000
G92 E0
G1 X103.529 Y103.529 F7800.000
G1 E2.00000 F2400.00000
G1 F900
G1 X96.471 Y103.529 E2.19039
G1 X96.471 Y96.471 E2.38077
G1 X103.529 Y96.471 E2.57116
G1 X103.529 Y103.454 E2.75953
G1 X104.164 Y104.164 F7800.000
G1 F900
G1 X95.836 Y104.164 E2.98421
G1 X95.836 Y95.836 E3.20889
G1 X104.164 Y95.836 E3.43357
G1 X104.164 Y104.089 E3.65623
G1 X104.725 Y104.725 F7800.000
G1 F900
G1 X95.275 Y104.725 E3.85100
G1 X95.275 Y95.275 E4.04576
G1 X104.725 Y95.275 E4.24053
G1 X104.725 Y104.650 E4.43375
G1 X104.242 Y104.596 F7800.000
G1 E2.43375 F2400.00000
G92 E0
G1 X103.140 Y97.354 F7800.000
G1 E2.00000 F2400.00000
G1 F1200
G1 X102.646 Y96.860 E2.02024
G1 X101.681 Y96.860 E2.04815
G1 X103.140 Y98.319 E2.10786
G1 X103.140 Y99.283 E2.13577
G1 X100.717 Y96.860 E2.23495
G1 X99.753 Y96.860 E2.26286
G1 X103.140 Y100.247 E2.40151
G1 X103.140 Y101.212 E2.42942
G1 X98.788 Y96.860 E2.60754
G1 X97.824 Y96.860 E2.63545
G1 X103.140 Y102.176 E2.85304
G1 X103.140 Y103.140 E2.88095
G1 X96.860 Y96.860 E3.13801
G1 X96.860 Y97.824 E3.16592
G1 X102.176 Y103.140 E3.38351
G1 X101.212 Y103.140 E3.41142
G1 X96.860 Y98.788 E3.58955
G1 X96.860 Y99.753 E3.61746
G1 X100.247 Y103.140 E3.75611
G1 X99.283 Y103.140 E3.78402
G1 X96.860 Y100.717 E3.88320
G1 X96.860 Y101.681 E3.91111
G1 X98.319 Y103.140 E3.97082
G1 X97.354 Y103.140 E3.99873
G1 X96.860 Y102.646 E4.01897
G1 Z3.350 F7800.000
