; generated by Slic3r 1.3.0 on 2024-11-10 at 13:51:54

; external perimeters extrusion width = 0.55mm (7.28mm^3/s)
; perimeters extrusion width = 0.70mm (11.44mm^3/s)
; infill extrusion width = 0.63mm (13.45mm^3/s)
; solid infill extrusion width = 0.70mm (3.81mm^3/s)
; top infill extrusion width = 0.70mm (2.86mm^3/s)

M107
M104 S200 ; set temperature
G28 ; home all axes
G1 Z5 F5000 ; lift nozzle

; Filament gcode

M109 S200 ; set temperature and wait for it to be reached
G21 ; set units to millimeters
G90 ; use absolute coordinates
M82 ; use absolute distances for extrusion
G92 E0
G1 Z0.350 F7800.000
G1 E-2.00000 F2400.00000
G92 E0
G1 X89.979 Y90.888 F7800.000
G1 E2.00000 F2400.00000
G1 F1800
G1 X90.888 Y89.979 E2.03573
G1 X91.949 Y89.108 E2.07384
G1 X93.018 Y88.393 E2.10957
G1 X94.228 Y87.747 E2.14769
G1 X95.417 Y87.254 E2.18342
G1 X96.730 Y86.856 E2.22154
G1 X97.991 Y86.605 E2.25726
G1 X99.357 Y86.471 E2.29538
G1 X100.643 Y86.471 E2.33111
G1 X102.009 Y86.605 E2.36922
G1 X103.270 Y86.856 E2.40495
G1 X104.583 Y87.254 E2.44307
G1 X105.772 Y87.747 E2.47880
G1 X106.982 Y88.393 E2.51692
G1 X108.051 Y89.108 E2.55264
G1 X109.112 Y89.979 E2.59076
G1 X110.021 Y90.888 E2.62649
G1 X110.892 Y91.949 E2.66461
G1 X111.607 Y93.018 E2.70033
G1 X112.253 Y94.228 E2.73845
G1 X112.746 Y95.417 E2.77418
G1 X113.144 Y96.730 E2.81230
G1 X113.395 Y97.991 E2.84802
G1 X113.529 Y99.357 E2.88614
G1 X113.529 Y100.643 E2.92187
G1 X113.395 Y102.009 E2.95998
G1 X113.144 Y103.270 E2.99571
G1 X112.746 Y104.583 E3.03383
G1 X112.253 Y105.772 E3.06956
G1 X111.607 Y106.982 E3.10767
G1 X110.892 Y108.051 E3.14340
G1 X110.021 Y109.112 E3.18152
G1 X109.112 Y110.021 E3.21725
G1 X108.051 Y110.892 E3.25536
G1 X106.982 Y111.607 E3.29109
G1 X105.772 Y112.253 E3.32921
G1 X104.583 Y112.746 E3.36494
G1 X103.270 Y113.144 E3.40305
G1 X102.009 Y113.395 E3.43878
G1 X100.643 Y113.529 E3.47690
G1 X99.357 Y113.529 E3.51263
G1 X97.991 Y113.395 E3.55075
G1 X96.730 Y113.144 E3.58647
G1 X95.417 Y112.746 E3.62459
G1 X94.228 Y112.253 E3.66032
G1 X93.018 Y111.607 E3.69844
G1 X91.949 Y110.892 E3.73416
G1 X90.888 Y110.021 E3.77228
G1 X89.979 Y109.112 E3.80801
G1 X89.108 Y108.051 E3.84613
G1 X88.393 Y106.982 E3.88185
G1 X87.747 Y105.772 E3.91997
G1 X87.254 Y104.583 E3.95570
G1 X86.856 Y103.270 E3.99382
G1 X86.605 Y102.009 E4.02954
G1 X86.471 Y100.643 E4.06766
G1 X86.471 Y99.357 E4.10339
G1 X86.605 Y97.991 E4.14151
G1 X86.856 Y96.730 E4.17723
G1 X87.254 Y95.417 E4.21535
G1 X87.747 Y94.228 E4.25108
G1 X88.393 Y93.018 E4.28920
G1 X89.108 Y91.949 E4.32492
G1 X89.931 Y90.946 E4.36096
G1 E2.36096 F2400.00000
G92 E0
G1 X103.988 Y103.988 F7800.000
G1 E2.00000 F2400.00000
G1 F1800
G1 X103.133 Y104.689 E2.03071
G1 X102.158 Y105.210 E2.06142
G1 X101.100 Y105.531 E2.09213
G1 X100.000 Y105.640 E2.12284
G1 X98.900 Y105.531 E2.15355
G1 X97.842 Y105.210 E2.18426
G1 X96.867 Y104.689 E2.21497
G1 X96.012 Y103.988 E2.24567
G1 X95.311 Y103.133 E2.27638
G1 X94.790 Y102.158 E2.30709
G1 X94.469 Y101.100 E2.33780
G1 X94.360 Y100.000 E2.36851
G1 X94.469 Y98.900 E2.39922
G1 X94.790 Y97.842 E2.42993
G1 X95.311 Y96.867 E2.46064
G1 X96.012 Y96.012 E2.49135
G1 X96.867 Y95.311 E2.52206
G1 X97.842 Y94.790 E2.55277
G1 X98.900 Y94.469 E2.58348
G1 X100.000 Y94.360 E2.61419
G1 X101.100 Y94.469 E2.64490
G1 X102.158 Y94.790 E2.67561
G1 X103.133 Y95.311 E2.70632
G1 X103.988 Y96.012 E2.73702
G1 X104.689 Y96.867 E2.76773
G1 X105.210 Y97.842 E2.79844
G1 X105.531 Y98.900 E2.82915
G1 X105.640 Y100.000 E2.85986
G1 X105.531 Y101.100 E2.89057
G1 X105.210 Y102.158 E2.92128
G1 X104.689 Y103.133 E2.95199
G1 X104.035 Y103.930 E2.98062
G1 X104.344 Y104.421 F7800.000
G1 F1800
G1 X103.446 Y105.158 E3.01286
G1 X102.374 Y105.731 E3.04664
G1 X101.210 Y106.084 E3.08042
G1 X100.000 Y106.203 E3.11420
G1 X98.790 Y106.084 E3.14798
G1 X97.626 Y105.731 E3.18176
G1 X96.554 Y105.158 E3.21553
G1 X95.614 Y104.386 E3.24931
G1 X94.842 Y103.446 E3.28309
G1 X94.269 Y102.374 E3.31687
G1 X93.916 Y101.210 E3.35065
G1 X93.797 Y100.000 E3.38443
G1 X93.916 Y98.790 E3.41821
G1 X94.269 Y97.626 E3.45199
G1 X94.842 Y96.554 E3.48577
G1 X95.614 Y95.614 E3.51955
G1 X96.554 Y94.842 E3.55332
G1 X97.626 Y94.269 E3.58710
G1 X98.790 Y93.916 E3.62088
G1 X100.000 Y93.797 E3.65466
G1 X101.210 Y93.916 E3.68844
G1 X102.374 Y94.269 E3.72222
G1 X103.446 Y94.842 E3.75600
G1 X104.386 Y95.614 E3.78978
G1 X105.158 Y96.554 E3.82356
G1 X105.731 Y97.626 E3.85734
G1 X106.084 Y98.790 E3.89111
G1 X106.203 Y100.000 E3.92489
G1 X106.084 Y101.210 E3.95867
G1 X105.731 Y102.374 E3.99245
G1 X105.158 Y103.446 E4.02623
G1 X104.399 Y104.371 E4.05946
G1 X104.672 Y104.822 F7800.000
G1 F1800
G1 X103.735 Y105.591 E4.08795
G1 X102.573 Y106.212 E4.11895
G1 X101.312 Y106.594 E4.14994
G1 X100.000 Y106.724 E4.18093
G1 X98.688 Y106.594 E4.21193
G1 X97.427 Y106.212 E4.24292
G1 X96.265 Y105.591 E4.27391
G1 X95.246 Y104.754 E4.30491
G1 X94.409 Y103.735 E4.33590
G1 X93.788 Y102.573 E4.36689
G1 X93.406 Y101.312 E4.39789
G1 X93.276 Y100.000 E4.42888
G1 X93.406 Y98.688 E4.45987
G1 X93.788 Y97.427 E4.49087
G1 X94.409 Y96.265 E4.52186
G1 X95.246 Y95.246 E4.55285
G1 X96.265 Y94.409 E4.58385
G1 X97.427 Y93.788 E4.61484
G1 X98.688 Y93.406 E4.64583
G1 X100.000 Y93.276 E4.67683
G1 X101.312 Y93.406 E4.70782
G1 X102.573 Y93.788 E4.73881
G1 X103.735 Y94.409 E4.76981
G1 X104.754 Y95.246 E4.80080
G1 X105.591 Y96.265 E4.83179
G1 X106.212 Y97.427 E4.86279
G1 X106.594 Y98.688 E4.89378
G1 X106.724 Y100.000 E4.92477
G1 X106.594 Y101.312 E4.95576
G1 X106.212 Y102.573 E4.98676
G1 X105.591 Y103.735 E5.01775
G1 X104.730 Y104.774 E5.04947
G1 X104.194 Y104.674 F7800.000
G1 X103.370 Y103.808 F7800.000
G1 F1800
G1 X103.808 Y103.370 E5.06675
G1 X104.439 Y102.602 E5.09451
G1 X104.908 Y101.724 E5.12230
G1 X105.017 Y101.364 E5.13282
G1 X101.364 Y105.017 E5.27711
G1 X100.772 Y105.196 E5.29437
G1 X100.344 Y105.239 E5.30637
G1 X105.239 Y100.344 E5.49965
G1 X105.294 Y99.782 E5.51543
G1 X105.268 Y99.517 E5.52285
G1 X99.517 Y105.268 E5.74995
G1 X98.791 Y105.196 E5.77032
G1 X105.196 Y98.791 E6.02326
G1 X105.011 Y98.179 E6.04112
G1 X98.179 Y105.011 E6.31090
G1 X97.839 Y104.908 E6.32082
G1 X97.609 Y104.784 E6.32813
G1 X104.784 Y97.609 E6.61151
G1 X104.506 Y97.089 E6.62797
G1 X97.089 Y104.506 E6.92090
G1 X96.962 Y104.439 E6.92492
G1 X96.631 Y104.167 E6.93688
G1 X104.167 Y96.631 E7.23450
G1 X103.807 Y96.193 E7.25032
G1 X96.193 Y103.807 E7.55104
G1 X95.833 Y103.369 E7.56686
G1 X103.369 Y95.833 E7.86447
G1 X103.038 Y95.561 E7.87643
G1 X102.911 Y95.494 E7.88045
G1 X95.494 Y102.911 E8.17339
G1 X95.216 Y102.391 E8.18984
G1 X102.391 Y95.216 E8.47322
G1 X102.161 Y95.092 E8.48053
G1 X101.821 Y94.989 E8.49046
G1 X94.989 Y101.821 E8.76024
G1 X94.804 Y101.209 E8.77810
G1 X101.209 Y94.804 E9.03104
G1 X100.483 Y94.732 E9.05141
G1 X94.732 Y100.483 E9.27851
G1 X94.706 Y100.218 E9.28593
G1 X94.761 Y99.656 E9.30171
G1 X99.656 Y94.761 E9.49499
G1 X99.228 Y94.804 E9.50699
G1 X98.636 Y94.983 E9.52425
G1 X94.983 Y98.636 E9.66853
G1 X95.092 Y98.276 E9.67906
G1 X95.561 Y97.398 E9.70685
G1 X96.192 Y96.630 E9.73460
G1 X96.630 Y96.192 E9.75189
G1 Z0.650 F7800.000
G1 E7.75189 F2400.00000
G92 E0
G1 X99.009 Y100.431 F7800.000
G1 E2.00000 F2400.00000
G1 F600
G1 X98.584 Y100.431 E2.01147
G1 X98.584 Y99.569 E2.03473
G1 X99.009 Y99.569 E2.04619
G1 X99.009 Y100.356 E2.06743
G1 X99.570 Y100.992 F7800.000
G1 F600
G1 X98.024 Y100.992 E2.09930
G1 X98.024 Y99.008 E2.14018
G1 X99.570 Y99.008 E2.17205
G1 X99.570 Y100.917 E2.21138
G1 X99.093 Y100.843 F7800.000
G1 E0.21138 F2400.00000
G92 E0
G1 X95.080 Y100.431 F7800.000
G1 E2.00000 F2400.00000
G1 F600
G1 X95.061 Y100.431 E2.00050
G1 X95.061 Y99.569 E2.02376
G1 X95.080 Y99.569 E2.02426
G1 X95.080 Y100.356 E2.04550
G1 X95.640 Y100.992 F7800.000
G1 F600
G1 X94.501 Y100.992 E2.06899
G1 X94.501 Y99.008 E2.10987
G1 X95.640 Y99.008 E2.13336
G1 X95.640 Y100.917 E2.17269
G1 X95.171 Y100.820 F7800.000
G1 Z0.950 F7800.000
G1 E0.17269 F2400.00000
G92 E0
G1 X102.210 Y100.992 F7800.000
G1 E2.00000 F2400.00000
G1 F600
G1 X102.210 Y99.008 E2.04088
G1 X102.478 Y99.008 E2.04640
G1 X102.478 Y100.992 E2.08728
G1 X102.285 Y100.992 E2.09126
G1 X102.233 Y100.492 F7800.000
G1 E0.09126 F2400.00000
G92 E0
G1 X98.842 Y100.431 F7800.000
G1 E2.00000 F2400.00000
G1 F600
G1 X98.424 Y100.431 E2.01128
G1 X98.424 Y99.569 E2.03454
G1 X98.842 Y99.569 E2.04581
G1 X98.842 Y100.356 E2.06705
G1 X99.403 Y100.992 F7800.000
G1 F600
G1 X97.863 Y100.992 E2.09878
G1 X97.863 Y99.008 E2.13966
G1 X99.403 Y99.008 E2.17138
G1 X99.403 Y100.917 E2.21071
G1 X98.926 Y100.842 F7800.000
G1 E0.21071 F2400.00000
G92 E0
G1 X95.080 Y100.431 F7800.000
G1 E2.00000 F2400.00000
G1 F600
G1 X95.061 Y100.431 E2.00050
G1 X95.061 Y99.569 E2.02376
G1 X95.080 Y99.569 E2.02426
G1 X95.080 Y100.356 E2.04550
G1 X95.640 Y100.992 F7800.000
G1 F600
G1 X94.501 Y100.992 E2.06899
G1 X94.501 Y99.008 E2.10987
G1 X95.640 Y99.008 E2.13336
G1 X95.640 Y100.917 E2.17269
G1 X95.171 Y100.820 F7800.000
M106 S255
G1 Z1.250 F7800.000
G1 E0.17269 F2400.00000
G92 E0
G1 X102.052 Y100.992 F7800.000
G1 E2.00000 F2400.00000
G1 F600
G1 X102.052 Y99.008 E2.04088
G1 X102.633 Y99.008 E2.05287
G1 X102.633 Y100.992 E2.09375
G1 X102.127 Y100.992 E2.10419
G1 X102.099 Y100.494 F7800.000
G1 E0.10419 F2400.00000
G92 E0
G1 X98.675 Y100.431 F7800.000
G1 E2.00000 F2400.00000
G1 F600
G1 X98.264 Y100.431 E2.01109
G1 X98.264 Y99.569 E2.03435
G1 X98.675 Y99.569 E2.04543
G1 X98.675 Y100.356 E2.06667
G1 X99.235 Y100.992 F7800.000
G1 F600
G1 X97.703 Y100.992 E2.09825
G1 X97.703 Y99.008 E2.13913
G1 X99.235 Y99.008 E2.17071
G1 X99.235 Y100.917 E2.21005
G1 X98.758 Y100.842 F7800.000
G1 E0.21005 F2400.00000
G92 E0
G1 X95.080 Y100.431 F7800.000
G1 E2.00000 F2400.00000
G1 F600
G1 X95.061 Y100.431 E2.00050
G1 X95.061 Y99.569 E2.02376
G1 X95.080 Y99.569 E2.02426
G1 X95.080 Y100.356 E2.04550
G1 X95.640 Y100.992 F7800.000
G1 F600
G1 X94.501 Y100.992 E2.06899
G1 X94.501 Y99.008 E2.10987
G1 X95.640 Y99.008 E2.13336
G1 X95.640 Y100.917 E2.17269
G1 X95.171 Y100.820 F7800.000
G1 Z1.550 F7800.000
G1 E0.17269 F2400.00000
G92 E0
G1 X101.893 Y100.992 F7800.000
G1 E2.00000 F2400.00000
G1 F600
G1 X101.893 Y99.008 E2.04088
G1 X102.789 Y99.008 E2.05934
G1 X102.789 Y100.992 E2.10022
G1 X101.968 Y100.992 E2.11712
G1 X101.964 Y100.497 F7800.000
G1 E0.11712 F2400.00000
G92 E0
G1 X98.508 Y100.431 F7800.000
G1 E2.00000 F2400.00000
G1 F600
G1 X98.104 Y100.431 E2.01090
G1 X98.104 Y99.569 E2.03416
G1 X98.508 Y99.569 E2.04505
G1 X98.508 Y100.356 E2.06629
G1 X99.068 Y100.992 F7800.000
G1 F600
G1 X97.543 Y100.992 E2.09773
G1 X97.543 Y99.008 E2.13861
G1 X99.068 Y99.008 E2.17004
G1 X99.068 Y100.917 E2.20938
G1 X98.591 Y100.842 F7800.000
G1 E0.20938 F2400.00000
G92 E0
G1 X95.080 Y100.431 F7800.000
G1 E2.00000 F2400.00000
G1 F600
G1 X95.061 Y100.431 E2.00050
G1 X95.061 Y99.569 E2.02376
G1 X95.080 Y99.569 E2.02426
G1 X95.080 Y100.356 E2.04550
G1 X95.640 Y100.992 F7800.000
G1 F600
G1 X94.501 Y100.992 E2.06899
G1 X94.501 Y99.008 E2.10987
G1 X95.640 Y99.008 E2.13336
G1 X95.640 Y100.917 E2.17269
G1 X95.171 Y100.820 F7800.000
G1 Z1.850 F7800.000
G1 E0.17269 F2400.00000
G92 E0
G1 X102.295 Y100.431 F7800.000
G1 E2.00000 F2400.00000
G1 F600
G1 X102.295 Y99.569 E2.02326
G1 X102.383 Y99.569 E2.02563
G1 X102.383 Y100.431 E2.04889
G1 X102.370 Y100.431 E2.04924
G1 X101.735 Y100.992 F7800.000
G1 F600
G1 X101.735 Y99.008 E2.09012
G1 X102.944 Y99.008 E2.11504
G1 X102.944 Y100.992 E2.15592
G1 X101.810 Y100.992 E2.17930
G1 X101.826 Y100.500 F7800.000
G1 E0.17930 F2400.00000
G92 E0
G1 X98.340 Y100.431 F7800.000
G1 E2.00000 F2400.00000
G1 F600
G1 X97.944 Y100.431 E2.01071
G1 X97.944 Y99.569 E2.03397
G1 X98.340 Y99.569 E2.04468
G1 X98.340 Y100.356 E2.06591
G1 X98.901 Y100.992 F7800.000
G1 F600
G1 X97.383 Y100.992 E2.09720
G1 X97.383 Y99.008 E2.13808
G1 X98.901 Y99.008 E2.16937
G1 X98.901 Y100.917 E2.20871
G1 X98.424 Y100.841 F7800.000
G1 E0.20871 F2400.00000
G92 E0
G1 X95.135 Y100.431 F7800.000
G1 E2.00000 F2400.00000
G1 F600
G1 X95.061 Y100.431 E2.00198
G1 X95.061 Y99.569 E2.02524
G1 X95.135 Y99.569 E2.02721
G1 X95.135 Y100.356 E2.04845
G1 X95.695 Y100.992 F7800.000
G1 F600
G1 X94.501 Y100.992 E2.07307
G1 X94.501 Y99.008 E2.11395
G1 X95.695 Y99.008 E2.13857
G1 X95.695 Y100.917 E2.17791
G1 X95.224 Y100.824 F7800.000
G1 Z2.150 F7800.000
G1 E0.17791 F2400.00000
G92 E0
G1 X102.137 Y100.431 F7800.000
G1 E2.00000 F2400.00000
G1 F600
G1 X102.137 Y99.569 E2.02326
G1 X102.539 Y99.569 E2.03410
G1 X102.539 Y100.431 E2.05736
G1 X102.212 Y100.431 E2.06617
G1 X101.576 Y100.992 F7800.000
G1 F600
G1 X101.576 Y99.008 E2.10705
G1 X103.099 Y99.008 E2.13844
G1 X103.099 Y100.992 E2.17932
G1 X101.651 Y100.992 E2.20916
G1 X101.685 Y100.504 F7800.000
G1 E0.20916 F2400.00000
G92 E0
G1 X98.173 Y100.431 F7800.000
G1 E2.00000 F2400.00000
G1 F600
G1 X97.783 Y100.431 E2.01052
G1 X97.783 Y99.569 E2.03378
G1 X98.173 Y99.569 E2.04430
G1 X98.173 Y100.356 E2.06553
G1 X98.734 Y100.992 F7800.000
G1 F600
G1 X97.223 Y100.992 E2.09668
G1 X97.223 Y99.008 E2.13756
G1 X98.734 Y99.008 E2.16870
G1 X98.734 Y100.917 E2.20804
G1 X98.257 Y100.841 F7800.000
G1 E0.20804 F2400.00000
G92 E0
G1 X95.401 Y100.431 F7800.000
G1 E2.00000 F2400.00000
G1 F600
G1 X95.061 Y100.431 E2.00916
G1 X95.061 Y99.569 E2.03242
G1 X95.401 Y99.569 E2.04157
G1 X95.401 Y100.356 E2.06281
G1 X95.961 Y100.992 F7800.000
G1 F600
G1 X94.501 Y100.992 E2.09292
G1 X94.501 Y99.008 E2.13380
G1 X95.961 Y99.008 E2.16390
G1 X95.961 Y100.917 E2.20324
G1 X95.485 Y100.838 F7800.000
G1 Z2.450 F7800.000
G1 E0.20324 F2400.00000
G92 E0
G1 X101.979 Y100.431 F7800.000
G1 E2.00000 F2400.00000
G1 F600
G1 X101.979 Y99.569 E2.02326
G1 X102.694 Y99.569 E2.04256
G1 X102.694 Y100.431 E2.06582
G1 X102.054 Y100.431 E2.08310
G1 X101.418 Y100.992 F7800.000
G1 F600
G1 X101.418 Y99.008 E2.12398
G1 X103.255 Y99.008 E2.16183
G1 X103.255 Y100.992 E2.20271
G1 X101.493 Y100.992 E2.23902
G1 X101.541 Y100.507 F7800.000
G1 E0.23902 F2400.00000
G92 E0
G1 X98.006 Y100.431 F7800.000
G1 E2.00000 F2400.00000
G1 F600
G1 X97.623 Y100.431 E2.01033
G1 X97.623 Y99.569 E2.03359
G1 X98.006 Y99.569 E2.04392
G1 X98.006 Y100.356 E2.06515
G1 X98.567 Y100.992 F7800.000
G1 F600
G1 X97.063 Y100.992 E2.09615
G1 X97.063 Y99.008 E2.13703
G1 X98.567 Y99.008 E2.16803
G1 X98.567 Y100.917 E2.20737
G1 X98.090 Y100.840 F7800.000
G1 E0.20737 F2400.00000
G92 E0
G1 X95.667 Y100.431 F7800.000
G1 E2.00000 F2400.00000
G1 F600
G1 X95.061 Y100.431 E2.01634
G1 X95.061 Y99.569 E2.03960
G1 X95.667 Y99.569 E2.05593
G1 X95.667 Y100.356 E2.07717
G1 X96.227 Y100.992 F7800.000
G1 F600
G1 X94.501 Y100.992 E2.11276
G1 X94.501 Y99.008 E2.15364
G1 X96.227 Y99.008 E2.18923
G1 X96.227 Y100.917 E2.22857
G1 X95.748 Y100.851 F7800.000
G1 Z2.750 F7800.000
G1 E0.22857 F2400.00000
G92 E0
G1 X101.820 Y100.431 F7800.000
G1 E2.00000 F2400.00000
G1 F600
G1 X101.820 Y99.569 E2.02326
G1 X102.849 Y99.569 E2.05102
G1 X102.849 Y100.431 E2.07428
G1 X101.895 Y100.431 E2.10002
G1 X101.259 Y100.992 F7800.000
G1 F600
G1 X101.259 Y99.008 E2.14090
G1 X103.410 Y99.008 E2.18522
G1 X103.410 Y100.992 E2.22611
G1 X101.334 Y100.992 E2.26888
G1 X101.395 Y100.511 F7800.000
G1 E0.26888 F2400.00000
G92 E0
G1 X97.839 Y100.431 F7800.000
G1 E2.00000 F2400.00000
G1 F600
G1 X95.061 Y100.431 E2.07493
G1 X95.061 Y99.569 E2.09819
G1 X97.839 Y99.569 E2.17311
G1 X97.839 Y100.356 E2.19435
G1 X98.399 Y100.992 F7800.000
G1 F600
G1 X94.501 Y100.992 E2.27471
G1 X94.501 Y99.008 E2.31559
G1 X98.399 Y99.008 E2.39594
G1 X98.399 Y100.917 E2.43528
G1 X97.906 Y100.914 F7800.000
G1 Z3.050 F7800.000
G1 E0.43528 F2400.00000
G92 E0
