; generated by Slic3r 1.3.0 on 2024-11-10 at 11:47:19

; external perimeters extrusion width = 0.55mm (7.28mm^3/s)
; perimeters extrusion width = 0.70mm (11.44mm^3/s)
; infill extrusion width = 0.63mm (13.45mm^3/s)
; solid infill extrusion width = 0.70mm (3.81mm^3/s)
; top infill extrusion width = 0.70mm (2.86mm^3/s)

M107
M104 S200 ; set temperature
G28 ; home all axes
G1 Z5 F5000 ; lift nozzle

; Filament gcode

M109 S200 ; set temperature and wait for it to be reached
G21 ; set units to millimeters
G90 ; use absolute coordinates
M82 ; use absolute distances for extrusion
G92 E0
G1 Z0.350 F7800.000
G1 E-2.00000 F2400.00000
G92 E0
G1 X94.144 Y94.131 F7800.000
G1 E2.00000 F2400.00000
G1 F831.262
G1 X95.049 Y93.226 E2.03555
G1 X97.639 Y91.633 E2.12003
G1 X97.951 Y91.530 E2.12916
G1 X100.210 Y91.205 E2.19255
G1 X102.049 Y91.530 E2.24443
G1 X102.361 Y91.632 E2.25356
G1 X104.951 Y93.226 E2.33803
G1 X106.771 Y95.045 E2.40951
G1 X108.352 Y97.597 E2.49289
G1 X108.457 Y97.912 E2.50213
G1 X108.796 Y100.169 E2.56552
G1 X108.457 Y102.088 E2.61963
G1 X108.352 Y102.403 E2.62886
G1 X106.771 Y104.955 E2.71225
G1 X104.951 Y106.774 E2.78372
G1 X102.361 Y108.367 E2.86819
G1 X102.049 Y108.470 E2.87732
G1 X99.790 Y108.795 E2.94072
G1 X97.951 Y108.470 E2.99260
G1 X97.639 Y108.367 E3.00172
G1 X95.049 Y106.774 E3.08620
G1 X93.229 Y104.955 E3.15767
G1 X91.648 Y102.403 E3.24105
G1 X91.543 Y102.088 E3.25029
G1 X91.204 Y99.831 E3.31369
G1 X91.543 Y97.913 E3.36779
G1 X91.648 Y97.597 E3.37703
G1 X93.229 Y95.045 E3.46041
G1 X94.090 Y94.184 E3.49425
G1 E1.49425 F2400.00000
G92 E0
G1 X100.532 Y100.000 F7800.000
G1 E2.00000 F2400.00000
G1 F831.262
G1 X100.000 Y100.532 E2.02090
G1 X99.468 Y100.000 E2.04180
G1 X100.000 Y99.468 E2.06270
G1 X100.479 Y99.947 E2.08152
G1 X101.325 Y100.000 F7800.000
G1 F831.262
G1 X100.000 Y101.325 E2.13359
G1 X98.675 Y100.000 E2.18566
G1 X100.000 Y98.675 E2.23772
G1 X101.272 Y99.947 E2.28771
G1 X101.947 Y100.000 F7800.000
G1 F1800
G1 X101.891 Y100.167 E2.29184
G1 X100.164 Y101.894 E2.34928
G1 X100.000 Y101.948 E2.35334
G1 X99.836 Y101.894 E2.35740
G1 X98.109 Y100.167 E2.41484
G1 X98.053 Y100.000 E2.41897
G1 X98.109 Y99.833 E2.42310
G1 X99.836 Y98.106 E2.48055
G1 X100.000 Y98.052 E2.48461
G1 X100.164 Y98.106 E2.48866
G1 X101.891 Y99.833 E2.54611
G1 X101.923 Y99.929 E2.54847
G1 X101.798 Y100.093 F7800.000
G1 Z0.650 F7800.000
G1 X102.156 Y100.070 F7800.000
G1 F600
G1 X101.866 Y100.935 E2.57307

G1 F3600
G1 X101.733 Y101.331 E2.58470
G1 X101.300 Y101.755 E2.60153
G1 X100.920 Y101.880 E2.61262

G1 F600
G1 X100.000 Y102.183 E2.63876
G1 X99.080 Y101.880 E2.66489

G1 F3600
G1 X98.700 Y101.755 E2.67599
G1 X98.267 Y101.331 E2.69282
G1 X98.134 Y100.935 E2.70445

G1 F600
G1 X97.821 Y100.000 E2.73104
G1 X98.134 Y99.065 E2.75763

G1 F3600
G1 X98.267 Y98.669 E2.76926
G1 X98.700 Y98.245 E2.78609
G1 X99.080 Y98.120 E2.79718

G1 F600
G1 X100.000 Y97.817 E2.82332
G1 X100.920 Y98.120 E2.84945

G1 F3600
G1 X101.300 Y98.245 E2.86055
G1 X101.733 Y98.669 E2.87738
G1 X101.866 Y99.065 E2.88900

G1 F600
G1 X102.179 Y99.999 E2.91557
G1 X102.759 Y100.272 F7800.000

G1 F3600
G1 X102.287 Y101.678 E2.95677
G1 X101.639 Y102.313 E2.98195
G1 X100.000 Y102.852 E3.02988
G1 X98.361 Y102.313 E3.07780
G1 X97.713 Y101.678 E3.10299
G1 X97.150 Y100.000 E3.15216
G1 X97.713 Y98.322 E3.20134
G1 X98.361 Y97.687 E3.22652
G1 X100.000 Y97.148 E3.27445
G1 X101.639 Y97.687 E3.32237
G1 X102.287 Y98.322 E3.34756
G1 X102.850 Y100.000 E3.39674
G1 X102.782 Y100.201 E3.40263

G1 X103.290 Y100.451 F7800.000

G1 F3600
G1 X102.775 Y101.985 E3.44757
G1 X101.938 Y102.805 E3.48013
G1 X100.000 Y103.442 E3.53680
G1 X98.062 Y102.805 E3.59347
G1 X97.225 Y101.985 E3.62602
G1 X96.559 Y100.000 E3.68417
G1 X97.225 Y98.015 E3.74232
G1 X98.062 Y97.195 E3.77487
G1 X100.000 Y96.558 E3.83154
G1 X101.938 Y97.195 E3.88821
G1 X102.775 Y98.015 E3.92077
G1 X103.441 Y100.000 E3.97891
G1 X103.314 Y100.380 E3.99003

G1 E1.99003 F2400.00000
G92 E0
G1 X100.126 Y98.714 F7800.000
G1 E2.00000 F2400.00000

G1 F3600
G1 X99.653 Y98.251 E2.02597
G1 X98.963 Y98.477 E2.05445
G1 X101.529 Y100.990 E2.19537
G1 X101.308 Y101.211 E2.20759
G1 X101.419 Y101.266 E2.21241
G1 X101.254 Y101.427 E2.22144
G1 X101.200 Y101.319 E2.22617
G1 X101.073 Y101.446 E2.23323
G1 X98.498 Y98.923 E2.37471
G1 X98.270 Y99.602 E2.40281
G1 X100.433 Y101.721 E2.52164
G1 X100.233 Y101.787 E2.52991
G1 X99.249 Y101.463 E2.57053
G1 X98.551 Y100.779 E2.60890

G1 Z0.950 F7800.000
G1 E0.60890 F2400.00000
G92 E0
G1 X103.154 Y100.423 F7800.000
G1 E2.00000 F2400.00000
G1 F745.718
G1 X102.933 Y101.507 E2.02984
G1 X101.442 Y102.967 E2.08615
G1 X100.000 Y103.244 E2.12575
G1 X98.558 Y102.967 E2.16535
G1 X97.067 Y101.507 E2.22165
G1 X96.760 Y100.000 E2.26314
G1 X97.067 Y98.493 E2.30462
G1 X98.558 Y97.033 E2.36093
G1 X100.000 Y96.756 E2.40053
G1 X101.442 Y97.033 E2.44013
G1 X102.933 Y98.493 E2.49643
G1 X103.240 Y100.000 E2.53792
G1 X103.169 Y100.349 E2.54754
G1 X103.777 Y100.550 F7800.000
G1 F2982.87
G1 X103.724 Y100.807 E2.55461

G1 F3600
G1 X103.517 Y101.821 E2.58336
G1 X103.317 Y102.020 E2.59120

G1 F2982.87
G1 X101.959 Y103.350 E2.64249

G1 F3600
G1 X101.748 Y103.556 E2.65067
G1 X100.756 Y103.746 E2.67874

G1 F2982.87
G1 X100.000 Y103.891 E2.69949
G1 X99.244 Y103.746 E2.72024

G1 F3600
G1 X98.252 Y103.556 E2.74831
G1 X98.041 Y103.350 E2.75649

G1 F2982.87
G1 X96.683 Y102.020 E2.80778

G1 F3600
G1 X96.483 Y101.821 E2.81562
G1 X96.276 Y100.807 E2.84437

G1 F2982.87
G1 X96.111 Y100.000 E2.86658
G1 X96.276 Y99.193 E2.88880

G1 F3600
G1 X96.483 Y98.179 E2.91755
G1 X96.683 Y97.980 E2.92539

G1 F2982.87
G1 X98.041 Y96.650 E2.97668

G1 F3600
G1 X98.252 Y96.444 E2.98486
G1 X99.244 Y96.254 E3.01293

G1 F2982.87
G1 X100.000 Y96.109 E3.03368
G1 X100.756 Y96.254 E3.05443

G1 F3600
G1 X101.748 Y96.444 E3.08250
G1 X101.959 Y96.650 E3.09068

G1 F2982.87
G1 X103.317 Y97.980 E3.14197

G1 F3600
G1 X103.517 Y98.179 E3.14981
G1 X103.724 Y99.193 E3.17856

G1 F2982.87
G1 X103.889 Y100.000 E3.20077
G1 X103.792 Y100.477 E3.21389
G1 X104.326 Y100.662 F7800.000

G1 F3600
G1 X104.046 Y102.031 E3.25272
G1 X103.953 Y102.181 E3.25762
G1 X102.092 Y104.005 E3.32999
G1 X101.945 Y104.089 E3.33470
G1 X100.000 Y104.462 E3.38971
G1 X98.055 Y104.089 E3.44472
G1 X97.908 Y104.005 E3.44943
G1 X96.047 Y102.181 E3.52181
G1 X95.954 Y102.031 E3.52671
G1 X95.539 Y100.000 E3.58430
G1 X95.954 Y97.969 E3.64190
G1 X96.047 Y97.819 E3.64680
G1 X97.908 Y95.995 E3.71918
G1 X98.055 Y95.911 E3.72388
G1 X100.000 Y95.538 E3.77889
G1 X101.945 Y95.911 E3.83390
G1 X102.092 Y95.995 E3.83861
G1 X103.953 Y97.819 E3.91099
G1 X104.046 Y97.969 E3.91589
G1 X104.461 Y100.000 E3.97348
G1 X104.341 Y100.589 E3.99017

G1 E1.99017 F2400.00000
G92 E0
G1 X102.095 Y101.443 F7800.000
G1 E2.00000 F2400.00000
G1 F994.29
G1 X102.596 Y100.942 E2.02151
G1 X102.839 Y99.753 E2.05831
G1 X102.828 Y99.699 E2.05997
G1 X99.694 Y102.833 E2.19439
G1 X98.846 Y102.670 E2.22058
G1 X102.656 Y98.860 E2.38403
G1 X102.596 Y98.564 E2.39319
G1 X102.265 Y98.240 E2.40723
G1 X98.245 Y102.260 E2.57968
G1 X97.735 Y101.760 E2.60136
G1 X101.755 Y97.740 E2.77382
G1 X101.381 Y97.374 E2.78969
G1 X101.154 Y97.330 E2.79671
G1 X97.344 Y101.140 E2.96015
G1 X97.172 Y100.301 E2.98614
G1 X100.306 Y97.167 E3.12056
G1 X100.247 Y97.156 E3.12237
G1 X99.113 Y97.374 E3.15738
G1 X97.411 Y99.051 E3.22987
M106 S244.8
G1 Z1.250 F7800.000
G1 E1.22987 F2400.00000
G92 E0
G1 X103.926 Y100.580 F7800.000
G1 E2.00000 F2400.00000
G1 F900
G1 X103.722 Y101.582 E2.02759
G1 X102.925 Y102.865 E2.06832
G1 X102.744 Y103.043 E2.07515
G1 X101.481 Y103.764 E2.11439
G1 X100.000 Y104.048 E2.15508
G1 X98.519 Y103.764 E2.19576
G1 X97.256 Y103.043 E2.23500
G1 X97.075 Y102.865 E2.24183
G1 X96.278 Y101.582 E2.28257
G1 X95.955 Y100.000 E2.32613
G1 X96.278 Y98.418 E2.36970
G1 X97.075 Y97.135 E2.41043
G1 X97.256 Y96.957 E2.41727
G1 X98.519 Y96.236 E2.45651
G1 X100.000 Y95.952 E2.49719
G1 X101.481 Y96.236 E2.53788
G1 X102.744 Y96.957 E2.57711
G1 X102.925 Y97.135 E2.58395
G1 X103.722 Y98.418 E2.62468
G1 X104.045 Y100.000 E2.66825
G1 X103.941 Y100.507 E2.68221
G1 X104.549 Y100.708 F7800.000
G1 F900
G1 X104.322 Y101.821 E2.71287
G1 X103.425 Y103.266 E2.75873
G1 X103.130 Y103.554 E2.76985
G1 X101.705 Y104.368 E2.81414
G1 X100.000 Y104.695 E2.86097
G1 X98.295 Y104.368 E2.90779
G1 X96.870 Y103.554 E2.95209
G1 X96.575 Y103.266 E2.96320
G1 X95.678 Y101.821 E3.00907
G1 X95.307 Y100.000 E3.05921
G1 X95.678 Y98.179 E3.10934
G1 X96.575 Y96.734 E3.15521
G1 X96.870 Y96.446 E3.16632
G1 X98.295 Y95.632 E3.21062
G1 X100.000 Y95.305 E3.25745
G1 X101.705 Y95.632 E3.30427
G1 X103.130 Y96.446 E3.34857
G1 X103.425 Y96.734 E3.35968
G1 X104.322 Y98.179 E3.40555
G1 X104.693 Y100.000 E3.45568
G1 X104.564 Y100.634 E3.47314
G1 X105.098 Y100.820 F7800.000
M106 S255

G1 F3600
G1 X104.851 Y102.031 E3.50750
G1 X103.865 Y103.619 E3.55939
G1 X103.471 Y104.005 E3.57472
G1 X101.902 Y104.901 E3.62493
G1 X100.000 Y105.266 E3.67872
G1 X98.098 Y104.901 E3.73251
G1 X96.529 Y104.005 E3.78271
G1 X96.135 Y103.619 E3.79804
G1 X95.149 Y102.031 E3.84994
G1 X94.735 Y100.000 E3.90753
G1 X95.149 Y97.969 E3.96512
G1 X96.135 Y96.381 E4.01702
G1 X96.529 Y95.995 E4.03235
G1 X98.098 Y95.099 E4.08255
G1 X100.000 Y94.734 E4.13634
G1 X101.902 Y95.099 E4.19013
G1 X103.471 Y95.995 E4.24034
G1 X103.865 Y96.381 E4.25567
G1 X104.851 Y97.969 E4.30756
G1 X105.265 Y100.000 E4.36516
G1 X105.113 Y100.746 E4.38631
M106 S244.8

G1 E2.38631 F2400.00000
G92 E0
G1 X102.673 Y97.783 F7800.000
G1 E2.00000 F2400.00000
G1 F1200
G1 X102.110 Y97.222 E2.02332
G1 X101.010 Y96.593 E2.06051
G1 X100.385 Y96.473 E2.07919
G1 X103.511 Y99.599 E2.20892
G1 X103.643 Y100.247 E2.22836
G1 X103.565 Y100.631 E2.23984
G1 X99.361 Y96.427 E2.41433
G1 X98.540 Y96.584 E2.43886
G1 X103.399 Y101.443 E2.64053
G1 X103.369 Y101.591 E2.64497
G1 X103.062 Y102.084 E2.66201
G1 X97.907 Y96.929 E2.87601
G1 X97.395 Y97.222 E2.89331
G1 X97.312 Y97.312 E2.89692
G1 X102.688 Y102.688 E3.12005
G1 X102.605 Y102.778 E3.12365
G1 X102.093 Y103.071 E3.14096
G1 X96.938 Y97.916 E3.35495
G1 X96.631 Y98.409 E3.37200
G1 X96.601 Y98.557 E3.37643
G1 X101.460 Y103.416 E3.57811
G1 X100.639 Y103.573 E3.60263
G1 X96.435 Y99.369 E3.77712
G1 X96.357 Y99.753 E3.78861
G1 X96.489 Y100.401 E3.80804
G1 X99.615 Y103.527 E3.93777
G1 X98.990 Y103.407 E3.95646
G1 X97.890 Y102.778 E3.99364
G1 X97.327 Y102.217 E4.01697
M106 S237.15
G1 Z1.550 F7800.000
G1 E2.01697 F2400.00000
G92 E0
G1 X104.698 Y100.738 F7800.000
G1 E2.00000 F2400.00000
G1 F900
G1 X104.526 Y101.582 E2.02325
G1 X103.468 Y103.286 E2.07734
G1 X103.113 Y103.620 E2.09050
G1 X101.438 Y104.577 E2.14253
G1 X100.388 Y104.778 E2.17138
G1 X100.000 Y104.829 E2.18192
G1 X99.612 Y104.778 E2.19247
G1 X98.562 Y104.577 E2.22132
G1 X96.887 Y103.620 E2.27335
G1 X96.532 Y103.286 E2.28651
G1 X95.474 Y101.582 E2.34060
G1 X95.238 Y100.428 E2.37238
G1 X95.175 Y100.000 E2.38406
G1 X95.238 Y99.572 E2.39573
G1 X95.474 Y98.418 E2.42752
G1 X96.532 Y96.714 E2.48161
G1 X96.887 Y96.380 E2.49477
G1 X98.562 Y95.423 E2.54680
G1 X99.612 Y95.222 E2.57565
G1 X100.000 Y95.171 E2.58620
G1 X100.388 Y95.222 E2.59674
G1 X101.438 Y95.423 E2.62559
G1 X103.113 Y96.380 E2.67762
G1 X103.468 Y96.714 E2.69078
G1 X104.526 Y98.418 E2.74487
G1 X104.762 Y99.572 E2.77666
G1 X104.825 Y100.000 E2.78833
G1 X104.713 Y100.665 E2.80651
G1 X105.321 Y100.865 F7800.000
G1 F900
G1 X105.126 Y101.821 E2.83283
G1 X103.964 Y103.692 E2.89224
G1 X103.493 Y104.135 E2.90967
G1 X101.662 Y105.181 E2.96658
G1 X100.489 Y105.406 E2.99879
G1 X100.000 Y105.470 E3.01209
G1 X99.511 Y105.406 E3.02539
G1 X98.338 Y105.181 E3.05760
G1 X96.507 Y104.135 E3.11451
G1 X96.036 Y103.692 E3.13194
G1 X94.874 Y101.821 E3.19136
G1 X94.612 Y100.539 E3.22667
G1 X94.532 Y100.000 E3.24135
G1 X94.612 Y99.461 E3.25604
G1 X94.874 Y98.179 E3.29135
G1 X96.036 Y96.308 E3.35076
G1 X96.507 Y95.865 E3.36820
G1 X98.338 Y94.819 E3.42511
G1 X99.511 Y94.594 E3.45732
G1 X100.000 Y94.530 E3.47062
G1 X100.489 Y94.594 E3.48392
G1 X101.662 Y94.819 E3.51613
G1 X103.493 Y95.865 E3.57303
G1 X103.964 Y96.308 E3.59047
G1 X105.126 Y98.179 E3.64988
G1 X105.388 Y99.461 E3.68519
G1 X105.468 Y100.000 E3.69988
G1 X105.336 Y100.792 E3.72153
G1 X105.870 Y100.977 F7800.000
M106 S255

G1 F3600
G1 X105.655 Y102.031 E3.75142
G1 X104.402 Y104.050 E3.81742
G1 X103.829 Y104.588 E3.83926
G1 X101.859 Y105.714 E3.90228
G1 X100.578 Y105.960 E3.93850
G1 X100.000 Y106.035 E3.95470
G1 X99.422 Y105.960 E3.97090
G1 X98.141 Y105.714 E4.00711
G1 X96.171 Y104.588 E4.07014
G1 X95.598 Y104.050 E4.09198
G1 X94.345 Y102.031 E4.15798
G1 X94.060 Y100.636 E4.19755
G1 X93.965 Y100.000 E4.21541
G1 X94.060 Y99.364 E4.23327
G1 X94.345 Y97.969 E4.27283
G1 X95.598 Y95.950 E4.33884
G1 X96.171 Y95.412 E4.36067
G1 X98.141 Y94.286 E4.42370
G1 X99.422 Y94.040 E4.45992
G1 X100.000 Y93.965 E4.47611
G1 X100.578 Y94.040 E4.49231
G1 X101.859 Y94.286 E4.52853
G1 X103.829 Y95.412 E4.59155
G1 X104.402 Y95.950 E4.61339
G1 X105.655 Y97.969 E4.67940
G1 X105.940 Y99.364 E4.71896
G1 X106.035 Y100.000 E4.73682
G1 X105.885 Y100.904 E4.76227
M106 S237.15

G1 E2.76227 F2400.00000
G92 E0
G1 X102.723 Y103.129 F7800.000
G1 E2.00000 F2400.00000
G1 F1200
G1 X103.220 Y102.632 E2.01899
G1 X104.173 Y101.097 E2.06782
G1 X104.255 Y100.697 E2.07884
G1 X100.676 Y104.275 E2.21558
G1 X100.039 Y104.398 E2.23310
G1 X99.753 Y104.435 E2.24090
G1 X99.632 Y104.419 E2.24419
G1 X104.413 Y99.638 E2.42686
G1 X104.270 Y98.881 E2.44768
G1 X98.868 Y104.283 E2.65406
G1 X98.538 Y104.220 E2.66313
G1 X98.216 Y104.035 E2.67317
G1 X104.046 Y98.205 E2.89595
G1 X103.701 Y97.649 E2.91361
G1 X97.643 Y103.708 E3.14511
G1 X97.070 Y103.380 E3.16293
G1 X103.356 Y97.094 E3.40314
G1 X103.219 Y96.873 E3.41016
G1 X102.930 Y96.620 E3.42055
G1 X96.644 Y102.906 E3.66075
G1 X96.299 Y102.351 E3.67842
G1 X102.357 Y96.292 E3.90991
G1 X101.784 Y95.965 E3.92774
G1 X95.954 Y101.795 E4.15052
G1 X95.827 Y101.591 E4.15702
G1 X95.730 Y101.119 E4.17005
G1 X101.132 Y95.717 E4.37643
G1 X100.368 Y95.581 E4.39739
G1 X95.587 Y100.362 E4.58006
G1 X95.570 Y100.247 E4.58318
G1 X95.617 Y99.930 E4.59186
G1 X95.745 Y99.303 E4.60913
G1 X99.324 Y95.725 E4.74586
G1 X99.033 Y95.780 E4.75387
G1 X97.515 Y96.648 E4.80110
G1 X96.783 Y97.365 E4.82879
G1 Z1.850 F7800.000
G1 E2.82879 F2400.00000
G92 E0
G1 X105.243 Y100.884 F7800.000
G1 E2.00000 F2400.00000
G1 F900
G1 X105.119 Y101.715 E2.02266
G1 X104.773 Y102.479 E2.04530
G1 X104.273 Y103.286 E2.07091
G1 X103.025 Y104.458 E2.11710
G1 X102.251 Y104.900 E2.14113
G1 X101.544 Y105.176 E2.16161
G1 X100.000 Y105.378 E2.20361
G1 X98.456 Y105.176 E2.24562
G1 X97.749 Y104.900 E2.26610
G1 X96.975 Y104.458 E2.29013
G1 X95.727 Y103.286 E2.33632
G1 X95.227 Y102.479 E2.36193
G1 X94.881 Y101.715 E2.38456
G1 X94.625 Y100.000 E2.43134
G1 X94.881 Y98.285 E2.47811
G1 X95.227 Y97.521 E2.50074
G1 X95.727 Y96.714 E2.52635
G1 X96.975 Y95.542 E2.57254
G1 X97.749 Y95.100 E2.59657
G1 X98.456 Y94.824 E2.61705
G1 X100.000 Y94.622 E2.65906
G1 X101.544 Y94.824 E2.70106
G1 X102.251 Y95.100 E2.72154
G1 X103.025 Y95.542 E2.74557
G1 X104.273 Y96.714 E2.79176
G1 X104.773 Y97.521 E2.81737
G1 X105.119 Y98.285 E2.84001
G1 X105.375 Y100.000 E2.88678
G1 X105.254 Y100.810 E2.90887
G1 X105.872 Y100.978 F7800.000
G1 F900
G1 X105.735 Y101.896 E2.93393
G1 X105.335 Y102.779 E2.96007
G1 X104.769 Y103.692 E2.98905
G1 X103.405 Y104.973 E3.03952
G1 X102.526 Y105.475 E3.06684
G1 X101.703 Y105.796 E3.09066
G1 X100.000 Y106.019 E3.13700
G1 X98.297 Y105.796 E3.18333
G1 X97.474 Y105.475 E3.20716
G1 X96.595 Y104.973 E3.23447
