; generated by Slic3r 1.3.0 on 2024-11-10 at 11:40:38

; external perimeters extrusion width = 0.55mm (7.28mm^3/s)
; perimeters extrusion width = 0.70mm (11.44mm^3/s)
; infill extrusion width = 0.63mm (13.45mm^3/s)
; solid infill extrusion width = 0.70mm (3.81mm^3/s)
; top infill extrusion width = 0.70mm (2.86mm^3/s)

M107
M104 S200 ; set temperature
G28 ; home all axes
G1 Z5 F5000 ; lift nozzle

; Filament gcode

M109 S200 ; set temperature and wait for it to be reached
G21 ; set units to millimeters
G90 ; use absolute coordinates
M82 ; use absolute distances for extrusion
G92 E0
G1 Z0.350 F7800.000
G1 E-2.00000 F2400.00000
G92 E0
G1 X80.110 Y83.277 F7800.000
G1 E2.00000 F2400.00000
G1 F1800
G1 X81.860 Y81.812 E2.06340
G1 X85.131 Y80.939 E2.15744
G1 X114.869 Y80.939 E2.98348
G1 X117.116 Y81.336 E3.04687
G1 X119.092 Y82.479 E3.11027
G1 X120.556 Y84.229 E3.17367
G1 X121.430 Y87.500 E3.26771
G1 X121.430 Y112.500 E3.96215
G1 X121.033 Y114.747 E4.02555
G1 X119.890 Y116.723 E4.08895
G1 X118.140 Y118.188 E4.15234
G1 X114.869 Y119.061 E4.24638
G1 X85.131 Y119.061 E5.07242
G1 X82.884 Y118.664 E5.13582
G1 X80.908 Y117.521 E5.19922
G1 X79.444 Y115.771 E5.26261
G1 X78.570 Y112.500 E5.35665
G1 X78.570 Y87.500 E6.05110
G1 X78.967 Y85.253 E6.11449
G1 X80.072 Y83.342 E6.17581
G1 E4.17581 F2400.00000
G92 E0
G1 X113.515 Y111.146 F7800.000
G1 E2.00000 F2400.00000
G1 F1800
G1 X86.485 Y111.146 E2.75082
G1 X86.485 Y88.854 E3.37005
G1 X113.515 Y88.854 E4.12087
G1 X113.515 Y111.071 E4.73801
G1 X114.076 Y111.707 F7800.000
G1 F1800
G1 X85.924 Y111.707 E5.52000
G1 X85.924 Y88.293 E6.17039
G1 X114.076 Y88.293 E6.95238
G1 X114.076 Y111.632 E7.60069
G1 X114.594 Y112.225 F7800.000
G1 F1800
G1 X85.406 Y112.225 E8.28701
G1 X85.406 Y87.775 E8.86193
G1 X114.594 Y87.775 E9.54825
G1 X114.594 Y112.150 E10.12140
G1 X114.107 Y112.110 F7800.000
G1 E8.12140 F2400.00000
G92 E0
G1 X112.736 Y110.803 F7800.000
G1 E2.00000 F2400.00000
G1 F1800
G1 X113.172 Y110.367 E2.01725
G1 X113.172 Y109.569 E2.03954
G1 X111.938 Y110.803 E2.08831
G1 X111.140 Y110.803 E2.11060
G1 X113.172 Y108.771 E2.19090
G1 X113.172 Y107.973 E2.21319
G1 X110.342 Y110.803 E2.32501
G1 X109.544 Y110.803 E2.34730
G1 X113.172 Y107.175 E2.49065
G1 X113.172 Y106.377 E2.51294
G1 X108.746 Y110.803 E2.68781
G1 X107.948 Y110.803 E2.71010
G1 X113.172 Y105.579 E2.91650
G1 X113.172 Y104.781 E2.93879
G1 X107.150 Y110.803 E3.17671
G1 X106.352 Y110.803 E3.19900
G1 X113.172 Y103.983 E3.46845
G1 X113.172 Y103.185 E3.49074
G1 X105.554 Y110.803 E3.79171
G1 X104.756 Y110.803 E3.81401
G1 X113.172 Y102.388 E4.14650
G1 X113.172 Y101.590 E4.16880
G1 X103.958 Y110.803 E4.53282
G1 X103.160 Y110.803 E4.55511
G1 X113.172 Y100.792 E4.95066
G1 X113.172 Y99.994 E4.97295
G1 X102.363 Y110.803 E5.40002
G1 X101.565 Y110.803 E5.42231
G1 X113.172 Y99.196 E5.88091
G1 X113.172 Y98.398 E5.90320
G1 X100.767 Y110.803 E6.39333
G1 X99.969 Y110.803 E6.41562
G1 X113.172 Y97.600 E6.93727
G1 X113.172 Y96.802 E6.95956
G1 X99.171 Y110.803 E7.51273
G1 X98.373 Y110.803 E7.53503
G1 X113.172 Y96.004 E8.11973
G1 X113.172 Y95.206 E8.14202
G1 X97.575 Y110.803 E8.75824
G1 X96.777 Y110.803 E8.78053
G1 X113.172 Y94.408 E9.42828
G1 X113.172 Y93.610 E9.45057
G1 X95.979 Y110.803 E10.12985
G1 X95.181 Y110.803 E10.15214
G1 X113.172 Y92.812 E10.86294
G1 X113.172 Y92.015 E10.88523
G1 X94.383 Y110.803 E11.62756
G1 X93.585 Y110.803 E11.64985
G1 X113.172 Y91.217 E12.42370
G1 X113.172 Y90.419 E12.44599
G1 X92.787 Y110.803 E13.25137
G1 X91.990 Y110.803 E13.27366
G1 X113.172 Y89.621 E14.11056
G1 X113.172 Y89.197 E14.12241
G1 X112.798 Y89.197 E14.13285
G1 X91.192 Y110.803 E14.98651
G1 X90.394 Y110.803 E15.00880
G1 X112.000 Y89.197 E15.86245
G1 X111.202 Y89.197 E15.88474
G1 X89.596 Y110.803 E16.73840
G1 X88.798 Y110.803 E16.76069
G1 X110.404 Y89.197 E17.61434
G1 X109.606 Y89.197 E17.63663
G1 X88.000 Y110.803 E18.49029
G1 X87.202 Y110.803 E18.51258
G1 X108.808 Y89.197 E19.36623
G1 X108.011 Y89.197 E19.38852
G1 X86.828 Y110.379 E20.22543
G1 X86.828 Y109.581 E20.24772
G1 X107.213 Y89.197 E21.05309
G1 X106.415 Y89.197 E21.07539
G1 X86.828 Y108.783 E21.84924
G1 X86.828 Y107.986 E21.87153
G1 X105.617 Y89.197 E22.61386
G1 X104.819 Y89.197 E22.63615
G1 X86.828 Y107.188 E23.34695
G1 X86.828 Y106.390 E23.36924
G1 X104.021 Y89.197 E24.04852
G1 X103.223 Y89.197 E24.07081
G1 X86.828 Y105.592 E24.71857
G1 X86.828 Y104.794 E24.74086
G1 X102.425 Y89.197 E25.35708
G1 X101.627 Y89.197 E25.37938
G1 X86.828 Y103.996 E25.96408
G1 X86.828 Y103.198 E25.98637
G1 X100.829 Y89.197 E26.53955
G1 X100.031 Y89.197 E26.56184
G1 X86.828 Y102.400 E27.08349
G1 X86.828 Y101.602 E27.10578
G1 X99.233 Y89.197 E27.59591
G1 X98.435 Y89.197 E27.61820
G1 X86.828 Y100.804 E28.07680
G1 X86.828 Y100.006 E28.09909
G1 X97.638 Y89.197 E28.52617
G1 X96.840 Y89.197 E28.54846
G1 X86.828 Y99.208 E28.94401
G1 X86.828 Y98.410 E28.96630
G1 X96.042 Y89.197 E29.33032
G1 X95.244 Y89.197 E29.35262
G1 X86.828 Y97.613 E29.68512
G1 X86.828 Y96.815 E29.70741
G1 X94.446 Y89.197 E30.00838
G1 X93.648 Y89.197 E30.03067
G1 X86.828 Y96.017 E30.30012
G1 X86.828 Y95.219 E30.32242
G1 X92.850 Y89.197 E30.56034
G1 X92.052 Y89.197 E30.58263
G1 X86.828 Y94.421 E30.78903
G1 X86.828 Y93.623 E30.81132
G1 X91.254 Y89.197 E30.98620
G1 X90.456 Y89.197 E31.00849
G1 X86.828 Y92.825 E31.15184
G1 X86.828 Y92.027 E31.17413
G1 X89.658 Y89.197 E31.28595
G1 X88.860 Y89.197 E31.30824
G1 X86.828 Y91.229 E31.38854
G1 X86.828 Y90.431 E31.41083
G1 X88.062 Y89.197 E31.45961
G1 X87.265 Y89.197 E31.48190
G1 X86.828 Y89.633 E31.49914
G1 Z0.650 F7800.000
G1 E29.49914 F2400.00000
G92 E0
G1 X113.154 Y111.029 F7800.000
G1 E2.00000 F2400.00000
G1 F3600
G1 X86.846 Y111.029 E2.70969
G1 X86.846 Y88.971 E3.30472
G1 X113.154 Y88.971 E4.01441
G1 X113.154 Y110.954 E4.60742
G1 X113.789 Y111.664 F7800.000
G1 F3600
G1 X86.211 Y111.664 E5.35140
G1 X86.211 Y88.336 E5.98073
G1 X113.789 Y88.336 E6.72471
G1 X113.789 Y111.589 E7.35201
G1 X114.350 Y112.225 F7800.000
G1 F3000
G1 X85.650 Y112.225 E7.94353
G1 X85.650 Y87.775 E8.44745
G1 X114.350 Y87.775 E9.03897
G1 X114.350 Y112.150 E9.54134
G1 X113.864 Y112.108 F7800.000
G1 E7.54134 F2400.00000
G92 E0
G1 X112.765 Y89.854 F7800.000
G1 E2.00000 F2400.00000
G1 F1200
G1 X112.271 Y89.360 E2.01924
G1 X111.354 Y89.360 E2.04444
G1 X112.765 Y90.771 E2.09932
G1 X112.765 Y91.687 E2.12453
G1 X110.438 Y89.360 E2.21505
G1 X109.521 Y89.360 E2.24026
G1 X112.765 Y92.604 E2.36643
G1 X112.765 Y93.520 E2.39163
G1 X108.605 Y89.360 E2.55345
G1 X107.689 Y89.360 E2.57866
G1 X112.765 Y94.436 E2.77612
G1 X112.765 Y95.353 E2.80132
G1 X106.772 Y89.360 E3.03443
G1 X105.856 Y89.360 E3.05964
G1 X112.765 Y96.269 E3.32839
G1 X112.765 Y97.186 E3.35359
G1 X104.939 Y89.360 E3.65799
G1 X104.023 Y89.360 E3.68320
G1 X112.765 Y98.102 E4.02324
G1 X112.765 Y99.019 E4.04845
G1 X103.106 Y89.360 E4.42414
G1 X102.190 Y89.360 E4.44934
G1 X112.765 Y99.935 E4.86068
G1 X112.765 Y100.852 E4.88588
G1 X101.273 Y89.360 E5.33286
G1 X100.357 Y89.360 E5.35807
G1 X112.765 Y101.768 E5.84069
G1 X112.765 Y102.684 E5.86590
G1 X99.441 Y89.360 E6.38417
G1 X98.524 Y89.360 E6.40937
G1 X112.765 Y103.601 E6.96329
G1 X112.765 Y104.517 E6.98849
G1 X97.608 Y89.360 E7.57806
G1 X96.691 Y89.360 E7.60326
G1 X112.765 Y105.434 E8.22847
G1 X112.765 Y106.350 E8.25367
G1 X95.775 Y89.360 E8.91453
G1 X94.858 Y89.360 E8.93973
G1 X112.765 Y107.267 E9.63623
G1 X112.765 Y108.183 E9.66143
G1 X93.942 Y89.360 E10.39358
G1 X93.025 Y89.360 E10.41878
G1 X112.765 Y109.100 E11.18657
G1 X112.765 Y110.016 E11.21178
G1 X92.109 Y89.360 E12.01521
G1 X91.193 Y89.360 E12.04042
G1 X112.473 Y110.640 E12.86813
G1 X111.557 Y110.640 E12.89334
G1 X90.276 Y89.360 E13.72106
G1 X89.360 Y89.360 E13.74626
G1 X110.640 Y110.640 E14.57398
G1 X109.724 Y110.640 E14.59919
G1 X88.443 Y89.360 E15.42691
G1 X87.527 Y89.360 E15.45211
G1 X108.807 Y110.640 E16.27983
G1 X107.891 Y110.640 E16.30503
G1 X87.235 Y89.984 E17.10847
G1 X87.235 Y90.900 E17.13367
G1 X106.975 Y110.640 E17.90146
G1 X106.058 Y110.640 E17.92667
G1 X87.235 Y91.817 E18.65881
G1 X87.235 Y92.733 E18.68402
G1 X105.142 Y110.640 E19.38052
G1 X104.225 Y110.640 E19.40572
G1 X87.235 Y93.650 E20.06658
G1 X87.235 Y94.566 E20.09178
G1 X103.309 Y110.640 E20.71699
G1 X102.392 Y110.640 E20.74219
G1 X87.235 Y95.483 E21.33176
G1 X87.235 Y96.399 E21.35696
G1 X101.476 Y110.640 E21.91088
G1 X100.559 Y110.640 E21.93608
G1 X87.235 Y97.316 E22.45435
G1 X87.235 Y98.232 E22.47956
G1 X99.643 Y110.640 E22.96219
G1 X98.727 Y110.640 E22.98739
G1 X87.235 Y99.148 E23.43437
G1 X87.235 Y100.065 E23.45958
G1 X97.810 Y110.640 E23.87091
G1 X96.894 Y110.640 E23.89612
G1 X87.235 Y100.981 E24.27181
G1 X87.235 Y101.898 E24.29701
G1 X95.977 Y110.640 E24.63706
G1 X95.061 Y110.640 E24.66226
G1 X87.235 Y102.814 E24.96666
G1 X87.235 Y103.731 E24.99187
G1 X94.144 Y110.640 E25.26062
G1 X93.228 Y110.640 E25.28582
G1 X87.235 Y104.647 E25.51893
G1 X87.235 Y105.564 E25.54414
G1 X92.311 Y110.640 E25.74160
G1 X91.395 Y110.640 E25.76681
G1 X87.235 Y106.480 E25.92862
G1 X87.235 Y107.396 E25.95383
G1 X90.479 Y110.640 E26.08000
G1 X89.562 Y110.640 E26.10521
G1 X87.235 Y108.313 E26.19573
G1 X87.235 Y109.229 E26.22094
G1 X88.646 Y110.640 E26.27582
G1 X87.729 Y110.640 E26.30102
G1 X87.235 Y110.146 E26.32026
G1 Z0.950 F7800.000
G1 E24.32026 F2400.00000
G92 E0
G1 X112.929 Y111.029 F7800.000
G1 E2.00000 F2400.00000
G1 F3600
G1 X87.071 Y111.029 E2.69755
G1 X87.071 Y88.971 E3.29258
G1 X112.929 Y88.971 E3.99013
G1 X112.929 Y110.954 E4.58314
G1 X113.564 Y111.664 F7800.000
G1 F3600
G1 X86.436 Y111.664 E5.31498
G1 X86.436 Y88.336 E5.94431
G1 X113.564 Y88.336 E6.67615
G1 X113.564 Y111.589 E7.30345
G1 X114.125 Y112.225 F7800.000
G1 F3000
G1 X85.875 Y112.225 E7.88570
G1 X85.875 Y87.775 E8.38962
G1 X114.125 Y87.775 E8.97186
G1 X114.125 Y112.150 E9.47424
G1 X113.639 Y112.107 F7800.000
G1 E7.47424 F2400.00000
G92 E0
G1 X112.046 Y110.640 F7800.000
G1 E2.00000 F2400.00000
G1 F1200
G1 X112.540 Y110.146 E2.01905
G1 X112.540 Y109.238 E2.04376
G1 X111.138 Y110.640 E2.09775
G1 X110.231 Y110.640 E2.12247
G1 X112.540 Y108.331 E2.21141
G1 X112.540 Y107.423 E2.23612
G1 X109.323 Y110.640 E2.36001
G1 X108.416 Y110.640 E2.38473
G1 X112.540 Y106.516 E2.54357
G1 X112.540 Y105.609 E2.56828
G1 X107.509 Y110.640 E2.76207
G1 X106.601 Y110.640 E2.78678
G1 X112.540 Y104.701 E3.01552
G1 X112.540 Y103.794 E3.04023
G1 X105.694 Y110.640 E3.30392
G1 X104.786 Y110.640 E3.32863
G1 X112.540 Y102.886 E3.62727
G1 X112.540 Y101.979 E3.65198
G1 X103.879 Y110.640 E3.98557
G1 X102.971 Y110.640 E4.01028
G1 X112.540 Y101.071 E4.37881
G1 X112.540 Y100.164 E4.40353
G1 X102.064 Y110.640 E4.80701
G1 X101.156 Y110.640 E4.83172
G1 X112.540 Y99.256 E5.27015
G1 X112.540 Y98.349 E5.29486
G1 X100.249 Y110.640 E5.76824
G1 X99.342 Y110.640 E5.79296
G1 X112.540 Y97.442 E6.30129
G1 X112.540 Y96.534 E6.32600
G1 X98.434 Y110.640 E6.86927
G1 X97.527 Y110.640 E6.89399
G1 X112.540 Y95.627 E7.47221
G1 X112.540 Y94.719 E7.49693
G1 X96.619 Y110.640 E8.11010
G1 X95.712 Y110.640 E8.13481
G1 X112.540 Y93.812 E8.78294
G1 X112.540 Y92.904 E8.80765
G1 X94.804 Y110.640 E9.49072
G1 X93.897 Y110.640 E9.51543
G1 X112.540 Y91.997 E10.23345
G1 X112.540 Y91.089 E10.25817
G1 X92.989 Y110.640 E11.01114
G1 X92.082 Y110.640 E11.03585
G1 X112.540 Y90.182 E11.82377
G1 X112.540 Y89.360 E11.84616
G1 X112.455 Y89.360 E11.84848
G1 X91.175 Y110.640 E12.66807
G1 X90.267 Y110.640 E12.69278
G1 X111.548 Y89.360 E13.51237
G1 X110.640 Y89.360 E13.53709
G1 X89.360 Y110.640 E14.35668
G1 X88.452 Y110.640 E14.38139
G1 X109.733 Y89.360 E15.20098
G1 X108.825 Y89.360 E15.22569
G1 X87.545 Y110.640 E16.04528
G1 X87.460 Y110.640 E16.04760
G1 X87.460 Y109.818 E16.06999
G1 X107.918 Y89.360 E16.85791
G1 X107.011 Y89.360 E16.88262
G1 X87.460 Y108.911 E17.63559
G1 X87.460 Y108.003 E17.66031
G1 X106.103 Y89.360 E18.37833
G1 X105.196 Y89.360 E18.40304
G1 X87.460 Y107.096 E19.08611
G1 X87.460 Y106.188 E19.11083
G1 X104.288 Y89.360 E19.75895
G1 X103.381 Y89.360 E19.78366
G1 X87.460 Y105.281 E20.39684
G1 X87.460 Y104.373 E20.42155
G1 X102.473 Y89.360 E20.99978
G1 X101.566 Y89.360 E21.02449
G1 X87.460 Y103.466 E21.56777
G1 X87.460 Y102.558 E21.59248
G1 X100.658 Y89.360 E22.10081
G1 X99.751 Y89.360 E22.12552
G1 X87.460 Y101.651 E22.59890
G1 X87.460 Y100.744 E22.62361
G1 X98.844 Y89.360 E23.06205
G1 X97.936 Y89.360 E23.08676
G1 X87.460 Y99.836 E23.49024
G1 X87.460 Y98.929 E23.51495
G1 X97.029 Y89.360 E23.88349
G1 X96.121 Y89.360 E23.90820
G1 X87.460 Y98.021 E24.24179
G1 X87.460 Y97.114 E24.26650
G1 X95.214 Y89.360 E24.56514
G1 X94.306 Y89.360 E24.58985
G1 X87.460 Y96.206 E24.85354
G1 X87.460 Y95.299 E24.87825
G1 X93.399 Y89.360 E25.10699
G1 X92.491 Y89.360 E25.13170
G1 X87.460 Y94.391 E25.32549
G1 X87.460 Y93.484 E25.35020
G1 X91.584 Y89.360 E25.50905
G1 X90.677 Y89.360 E25.53376
G1 X87.460 Y92.577 E25.65765
G1 X87.460 Y91.669 E25.68236
G1 X89.769 Y89.360 E25.77131
G1 X88.862 Y89.360 E25.79602
G1 X87.460 Y90.762 E25.85002
G1 X87.460 Y89.854 E25.87473
G1 X87.954 Y89.360 E25.89378
M106 S244.8
G1 Z1.250 F7800.000
G1 E23.89378 F2400.00000
G92 E0
G1 X112.704 Y111.029 F7800.000
G1 E2.00000 F2400.00000
G1 F3600
G1 X87.296 Y111.029 E2.68541
G1 X87.296 Y88.971 E3.28044
G1 X112.704 Y88.971 E3.96585
G1 X112.704 Y110.954 E4.55886
G1 X113.339 Y111.664 F7800.000
G1 F3600
G1 X86.661 Y111.664 E5.27856
G1 X86.661 Y88.336 E5.90789
G1 X113.339 Y88.336 E6.62759
G1 X113.339 Y111.589 E7.25490
G1 X113.900 Y112.225 F7800.000
G1 F3000
G1 X86.100 Y112.225 E7.82786
G1 X86.100 Y87.775 E8.33179
G1 X113.900 Y87.775 E8.90475
G1 X113.900 Y112.150 E9.40713
G1 X113.414 Y112.106 F7800.000
G1 E7.40713 F2400.00000
G92 E0
G1 X112.423 Y109.730 F7800.000
G1 E2.00000 F2400.00000
G1 F4800
G1 X109.491 Y110.516 E2.07223
G1 E0.07223 F2400.00000
G92 E0
G1 X105.826 Y110.748 F7800.000
G1 E2.00000 F2400.00000
G1 F4800
G1 X111.586 Y89.252 E2.52953
G1 E0.52953 F2400.00000
G92 E0
G1 X112.423 Y92.318 F7800.000
G1 E2.00000 F2400.00000
G1 F4800
G1 X87.577 Y98.976 E2.61205
G1 X87.662 Y99.554 F7800.000
G1 F4800
G1 X98.771 Y110.663 E2.98585
G1 X110.663 Y110.663 E3.26882
G1 X89.337 Y89.337 E3.98643
G1 X101.229 Y89.337 E4.26940
G1 X112.338 Y100.446 E4.64320
G1 X112.423 Y101.024 F7800.000
G1 F4800
G1 X87.577 Y107.682 E5.25525
G1 E3.25525 F2400.00000
G92 E0
G1 X88.414 Y110.748 F7800.000
G1 E2.00000 F2400.00000
G1 F4800
G1 X94.174 Y89.252 E2.52953
G1 E0.52953 F2400.00000
G92 E0
G1 X90.509 Y89.484 F7800.000
G1 E2.00000 F2400.00000
G1 F4800
G1 X87.577 Y90.270 E2.07223
G1 E0.07223 F2400.00000
G92 E0
G1 X102.880 Y89.252 F7800.000
G1 E2.00000 F2400.00000
G1 F4800
G1 X97.120 Y110.748 E2.52953
G1 Z1.550 F7800.000
G1 E0.52953 F2400.00000
G92 E0
G1 X112.479 Y111.029 F7800.000
G1 E2.00000 F2400.00000
G1 F3600
G1 X87.521 Y111.029 E2.67327
G1 X87.521 Y88.971 E3.26830
G1 X112.479 Y88.971 E3.94157
G1 X112.479 Y110.954 E4.53458
G1 X113.114 Y111.664 F7800.000
G1 F3600
G1 X86.886 Y111.664 E5.24214
G1 X86.886 Y88.336 E5.87147
G1 X113.114 Y88.336 E6.57903
G1 X113.114 Y111.589 E7.20634
G1 X113.675 Y112.225 F7800.000
G1 F3000
G1 X86.325 Y112.225 E7.77003
G1 X86.325 Y87.775 E8.27395
G1 X113.675 Y87.775 E8.83765
G1 X113.675 Y112.150 E9.34002
G1 X113.190 Y112.105 F7800.000
G1 E7.34002 F2400.00000
G92 E0
G1 X112.198 Y109.790 F7800.000
G1 E2.00000 F2400.00000
G1 F4800
G1 X109.491 Y110.516 E2.06669
G1 E0.06669 F2400.00000
G92 E0
G1 X105.826 Y110.748 F7800.000
G1 E2.00000 F2400.00000
G1 F4800
G1 X111.586 Y89.252 E2.52953
G1 E0.52953 F2400.00000
G92 E0
G1 X112.198 Y92.378 F7800.000
G1 E2.00000 F2400.00000
G1 F4800
G1 X87.802 Y98.916 E2.60096
G1 X87.887 Y99.779 F7800.000
G1 F4800
